assets/offering/skadegorelse2.svg

<svg width="48" height="47" viewBox="0 0 48 47" fill="none" xmlns="http://www.w3.org/2000/svg">
<mask id="mask0" mask-type="alpha" maskUnits="userSpaceOnUse" x="0" y="0" width="49" height="47">
<path fill-rule="evenodd" clip-rule="evenodd" d="M0.00012207 0.232422H48V46.7952H0.00012207V0.232422Z" fill="white"/>
</mask>
<g mask="url(#mask0)">
<path fill-rule="evenodd" clip-rule="evenodd" d="M48.0001 23.5139C48.0001 36.3721 37.2551 46.7954 24.0001 46.7954C10.7451 46.7954 0.00012207 36.3721 0.00012207 23.5139C0.00012207 10.6557 10.7451 0.232422 24.0001 0.232422C37.2551 0.232422 48.0001 10.6557 48.0001 23.5139Z" fill="#FF8A80"/>
</g>
<path fill-rule="evenodd" clip-rule="evenodd" d="M16.1829 32.5805L17.8499 34.1976L22.8889 29.3095L35.5659 20.0434C36.3579 19.4643 36.8519 18.5825 36.9209 17.6241C36.9909 16.6647 36.6279 15.7247 35.9269 15.0447C35.2259 14.3647 34.2529 14.0154 33.2689 14.0804C32.2799 14.1474 31.3709 14.6266 30.7739 15.3949L21.2209 27.6924L16.1829 32.5805ZM17.8498 35.5702L14.7688 32.5805L20.4898 27.0307L29.9748 14.8108C30.7458 13.8185 31.9208 13.1996 33.1988 13.1123C34.4768 13.0318 35.7288 13.4799 36.6338 14.3588C37.5398 15.2367 38.0078 16.4522 37.9178 17.691C37.8288 18.9307 37.1908 20.0705 36.1668 20.8184L23.5428 30.0399L17.8498 35.5702Z" fill="white"/>
<path fill-rule="evenodd" clip-rule="evenodd" d="M18.4357 35.9368C18.3077 35.9368 18.1797 35.8892 18.0817 35.7951L14.5367 32.3553C14.3407 32.1652 14.3407 31.8586 14.5367 31.6695C14.7317 31.4793 15.0477 31.4793 15.2437 31.6695L18.7897 35.1083C18.9847 35.2985 18.9847 35.605 18.7897 35.7951C18.6917 35.8892 18.5637 35.9368 18.4357 35.9368Z" fill="white"/>
<path fill-rule="evenodd" clip-rule="evenodd" d="M11.5255 23.1634H10.5705C10.2945 23.1634 10.0705 22.9461 10.0705 22.6784C10.0705 22.4107 10.2945 22.1934 10.5705 22.1934H11.5255C11.8015 22.1934 12.0255 22.4107 12.0255 22.6784C12.0255 22.9461 11.8015 23.1634 11.5255 23.1634Z" fill="white"/>
<path fill-rule="evenodd" clip-rule="evenodd" d="M18.2033 35.2267L17.4963 34.5408L22.1823 29.9951L22.8893 30.681L18.2033 35.2267Z" fill="white"/>
<path fill-rule="evenodd" clip-rule="evenodd" d="M15.8605 32.9542L15.1535 32.2684L19.8395 27.7227L20.5465 28.4085L15.8605 32.9542Z" fill="white"/>
<path fill-rule="evenodd" clip-rule="evenodd" d="M22.5353 31.0242L19.4533 28.0345L20.1603 27.3486L23.2423 30.3384L22.5353 31.0242Z" fill="white"/>
<path fill-rule="evenodd" clip-rule="evenodd" d="M18.0255 23.1634H14.5705C14.2945 23.1634 14.0705 22.9461 14.0705 22.6784C14.0705 22.4107 14.2945 22.1934 14.5705 22.1934H18.0255C18.3015 22.1934 18.5255 22.4107 18.5255 22.6784C18.5255 22.9461 18.3015 23.1634 18.0255 23.1634Z" fill="white"/>
<path fill-rule="evenodd" clip-rule="evenodd" d="M17.8253 14.0008H16.8703C16.5943 14.0008 16.3703 13.7835 16.3703 13.5158C16.3703 13.2481 16.5943 13.0308 16.8703 13.0308H17.8253C18.1013 13.0308 18.3253 13.2481 18.3253 13.5158C18.3253 13.7835 18.1013 14.0008 17.8253 14.0008Z" fill="white"/>
<path fill-rule="evenodd" clip-rule="evenodd" d="M24.3253 14.0008H20.8703C20.5943 14.0008 20.3703 13.7835 20.3703 13.5158C20.3703 13.2481 20.5943 13.0308 20.8703 13.0308H24.3253C24.6013 13.0308 24.8253 13.2481 24.8253 13.5158C24.8253 13.7835 24.6013 14.0008 24.3253 14.0008Z" fill="white"/>
<path fill-rule="evenodd" clip-rule="evenodd" d="M16.9758 18.5819H13.0208C12.7448 18.5819 12.5208 18.3646 12.5208 18.0968C12.5208 17.8291 12.7448 17.6118 13.0208 17.6118H16.9758C17.2518 17.6118 17.4758 17.8291 17.4758 18.0968C17.4758 18.3646 17.2518 18.5819 16.9758 18.5819Z" fill="white"/>
<path fill-rule="evenodd" clip-rule="evenodd" d="M21.4758 18.5819H20.0208C19.7448 18.5819 19.5208 18.3646 19.5208 18.0968C19.5208 17.8291 19.7448 17.6118 20.0208 17.6118H21.4758C21.7518 17.6118 21.9758 17.8291 21.9758 18.0968C21.9758 18.3646 21.7518 18.5819 21.4758 18.5819Z" fill="white"/>
</svg>

<svg width="48" height="47" viewBox="0 0 48 47" fill="none" xmlns="http://www.w3.org/2000/svg"><mask id="a" maskUnits="userSpaceOnUse" x="0" y="0" width="49" height="47"><path fill-rule="evenodd" clip-rule="evenodd" d="M0 .232h48v46.563H0V.232z" fill="#fff"/></mask><g mask="url(#a)"><path fill-rule="evenodd" clip-rule="evenodd" d="M48 23.514c0 12.858-10.745 23.281-24 23.281S0 36.372 0 23.514C0 10.656 10.745.232 24 .232s24 10.424 24 23.282z" fill="#FF8A80"/></g><path fill-rule="evenodd" clip-rule="evenodd" d="M16.183 32.58l1.667 1.618 5.039-4.889 12.677-9.266a3.293 3.293 0 001.355-2.419 3.26 3.26 0 00-.994-2.58 3.494 3.494 0 00-2.658-.964 3.451 3.451 0 00-2.495 1.315L21.22 27.692l-5.038 4.889zm1.667 2.99l-3.081-2.99 5.72-5.55 9.486-12.22a4.463 4.463 0 013.224-1.698 4.518 4.518 0 013.435 1.247 4.212 4.212 0 011.284 3.332 4.253 4.253 0 01-1.751 3.127L23.543 30.04l-5.693 5.53z" fill="#fff"/><path fill-rule="evenodd" clip-rule="evenodd" d="M18.436 35.937a.51.51 0 01-.354-.142l-3.545-3.44a.473.473 0 010-.685.51.51 0 01.707 0l3.546 3.438a.476.476 0 010 .687.51.51 0 01-.354.142zM11.525 23.163h-.955a.493.493 0 01-.5-.485c0-.267.224-.485.5-.485h.955c.277 0 .5.218.5.485a.493.493 0 01-.5.485z" fill="#fff"/><path fill-rule="evenodd" clip-rule="evenodd" d="M18.203 35.227l-.707-.686 4.686-4.546.707.686-4.686 4.546zM15.86 32.954l-.707-.686 4.687-4.545.707.686-4.687 4.545z" fill="#fff"/><path fill-rule="evenodd" clip-rule="evenodd" d="M22.535 31.024l-3.082-2.99.707-.685 3.082 2.99-.707.685zM18.026 23.163H14.57a.493.493 0 01-.5-.485c0-.267.224-.485.5-.485h3.456c.276 0 .5.218.5.485a.493.493 0 01-.5.485zM17.825 14h-.955a.493.493 0 01-.5-.484c0-.268.224-.485.5-.485h.955c.276 0 .5.217.5.485a.493.493 0 01-.5.485zM24.325 14H20.87a.493.493 0 01-.5-.484c0-.268.224-.485.5-.485h3.455c.276 0 .5.217.5.485a.493.493 0 01-.5.485zM16.976 18.582H13.02a.493.493 0 01-.5-.485c0-.268.224-.485.5-.485h3.955c.276 0 .5.217.5.485a.493.493 0 01-.5.485zM21.476 18.582H20.02a.493.493 0 01-.5-.485c0-.268.224-.485.5-.485h1.455c.276 0 .5.217.5.485a.493.493 0 01-.5.485z" fill="#fff"/></svg>
